svg/Outline/upload.svg

<svg viewBox="0 0 24 24" xmlns="http://www.w3.org/2000/svg" width="24" height="24"><path d="M11.36 6.42a.9.9 0 0 1 1.28 0l2.88 2.88a.9.9 0 0 1-1.27 1.28L12.9 9.23v10.6a.9.9 0 0 1-1.8 0V9.23l-1.35 1.35-.07.06a.9.9 0 0 1-1.26-1.27l.06-.07z"/><path d="M14.08 1.58c1.3.02 2.09.1 2.73.43a4 4 0 0 1 1.75 1.74c.43.86.43 1.98.43 4.22v2.67c-.02 1.3-.1 2.1-.43 2.73l-.16.28a4 4 0 0 1-1.59 1.47l-.16.08a4 4 0 0 1-1.32.3.86.86 0 0 1-.93-.88v-.2c0-.38.3-.68.67-.71.56-.05.8-.13.92-.2l.15-.08q.53-.32.81-.87l.06-.12q.08-.2.14-.8c.04-.58.04-1.33.04-2.48V7.97c0-1.15 0-1.9-.04-2.48a3 3 0 0 0-.14-.8l-.06-.12a2.2 2.2 0 0 0-.96-.96 3 3 0 0 0-.92-.2c-.57-.04-1.33-.04-2.48-.04h-1.18c-1.15 0-1.9 0-2.48.05-.56.04-.79.12-.92.19a2.2 2.2 0 0 0-.96.96 2 2 0 0 0-.2.92c-.04.58-.04 1.33-.04 2.48v1.19c0 1.15 0 1.9.05 2.48.04.55.12.78.19.92q.31.63.96.96l.12.05c.15.05.38.1.8.14.37.03.67.33.67.7v.2c0 .51-.42.93-.92.88a4 4 0 0 1-1.33-.3l-.16-.07a4 4 0 0 1-1.6-1.47l-.15-.28c-.32-.64-.4-1.43-.43-2.73V7.97c0-2.1 0-3.22.36-4.05l.07-.17a4 4 0 0 1 1.48-1.59l.27-.15c.64-.33 1.43-.41 2.73-.43l1.49-.01z"/></svg>

<svg viewBox="0 0 24 24" xmlns="http://www.w3.org/2000/svg" width="24" height="24"><path d="M11.36 6.42A.9 .9 0 0 1 12.64 6.42L15.52 9.3A.9 .9 0 0 1 14.25 10.58L12.9 9.23L12.9 19.83A.9 .9 0 0 1 11.1 19.83L11.1 9.23L9.68 10.64A.9 .9 0 0 1 8.42 9.37L8.48 9.3Z"/><path d="M14.08 1.58c1.3.02 2.09.1 2.73.43a4 4 0 0 1 1.75 1.74c.43.86.43 1.98.43 4.22v2.67c-.02 1.3-.1 2.1-.43 2.73l-.16.28a4 4 0 0 1-1.59 1.47l-.16.08a4 4 0 0 1-1.32.3.86.86 0 0 1-.93-.88v-.2c0-.38.3-.68.67-.71.56-.05.8-.13.92-.2l.15-.08q.53-.32.81-.87l.06-.12q.08-.2.14-.8c.04-.58.04-1.33.04-2.48V7.97c0-1.15 0-1.9-.04-2.48a3 3 0 0 0-.14-.8l-.06-.12a2.2 2.2 0 0 0-.96-.96 3 3 0 0 0-.92-.2c-.57-.04-1.33-.04-2.48-.04h-1.18c-1.15 0-1.9 0-2.48.05-.56.04-.79.12-.92.19a2.2 2.2 0 0 0-.96.96 2 2 0 0 0-.2.92c-.04.58-.04 1.33-.04 2.48v1.19c0 1.15 0 1.9.05 2.48.04.55.12.78.19.92q.31.63.96.96l.12.05c.15.05.38.1.8.14.37.03.67.33.67.7v.2c0 .51-.42.93-.92.88a4 4 0 0 1-1.33-.3l-.16-.07a4 4 0 0 1-1.6-1.47l-.15-.28c-.32-.64-.4-1.43-.43-2.73V7.97c0-2.1 0-3.22.36-4.05l.07-.17a4 4 0 0 1 1.48-1.59l.27-.15c.64-.33 1.43-.41 2.73-.43l1.49-.01z"/></svg>
